src/img/whatsapp-icon2.svg

<svg width="21" height="21" viewBox="0 0 21 21" fill="none" xmlns="http://www.w3.org/2000/svg">
<path d="M17.5014 3.25768C16.5799 2.32714 15.4824 1.58931 14.2728 1.08719C13.0632 0.585081 11.7658 0.328723 10.4562 0.333062C4.96878 0.333062 0.496418 4.80542 0.496418 10.2929C0.496418 12.0517 0.958729 13.7602 1.82305 15.2677L0.416016 20.4336L5.6924 19.0466C7.14968 19.8406 8.78787 20.2627 10.4562 20.2627C15.9437 20.2627 20.416 15.7903 20.416 10.3029C20.416 7.63959 19.3808 5.13708 17.5014 3.25768ZM10.4562 18.5743C8.96878 18.5743 7.51149 18.1723 6.23511 17.4185L5.9336 17.2376L2.79793 18.0617L3.6321 15.0064L3.43109 14.6949C2.60451 13.3753 2.16569 11.8499 2.16476 10.2929C2.16476 5.73005 5.88335 2.01145 10.4462 2.01145C12.6572 2.01145 14.7376 2.87578 16.2954 4.44361C17.0669 5.21132 17.6782 6.12456 18.094 7.13038C18.5098 8.13619 18.7217 9.21455 18.7175 10.3029C18.7376 14.8657 15.019 18.5743 10.4562 18.5743ZM14.9989 12.3833C14.7477 12.2627 13.5215 11.6597 13.3004 11.5692C13.0693 11.4888 12.9085 11.4486 12.7376 11.6898C12.5668 11.9411 12.0944 12.5039 11.9537 12.6647C11.813 12.8356 11.6622 12.8557 11.411 12.725C11.1597 12.6044 10.3557 12.3331 9.41099 11.4888C8.66727 10.8255 8.17481 10.0115 8.02406 9.7602C7.88335 9.50894 8.00395 9.37829 8.13461 9.24763C8.24516 9.13708 8.38586 8.95618 8.50647 8.81547C8.62707 8.67477 8.67732 8.56422 8.75772 8.40341C8.83813 8.23256 8.79792 8.09186 8.73762 7.97125C8.67732 7.85065 8.17481 6.62452 7.9738 6.12201C7.7728 5.63959 7.56174 5.6999 7.41099 5.68985H6.92858C6.75772 5.68985 6.49642 5.75015 6.26526 6.0014C6.04416 6.25266 5.40094 6.85567 5.40094 8.08181C5.40094 9.30794 6.29541 10.4939 6.41602 10.6547C6.53662 10.8255 8.17481 13.3381 10.6673 14.4135C11.2602 14.6748 11.7225 14.8255 12.0844 14.9361C12.6773 15.127 13.22 15.0969 13.6522 15.0366C14.1346 14.9662 15.1296 14.4336 15.3306 13.8506C15.5416 13.2677 15.5416 12.7753 15.4713 12.6647C15.4009 12.5542 15.2502 12.5039 14.9989 12.3833Z" fill="#F8F8F8"/>
</svg>

<svg width="21" height="21" fill="none" xmlns="http://www.w3.org/2000/svg"><path d="M17.501 3.258A9.869 9.869 0 0 0 10.456.333c-5.487 0-9.96 4.472-9.96 9.96 0 1.759.463 3.467 1.327 4.975L.416 20.434l5.276-1.387a9.962 9.962 0 0 0 4.764 1.216c5.488 0 9.96-4.473 9.96-9.96a9.897 9.897 0 0 0-2.915-7.045zm-7.045 15.316a8.303 8.303 0 0 1-4.22-1.155l-.302-.181-3.136.824.834-3.056-.2-.311a8.302 8.302 0 0 1-1.267-4.402c0-4.563 3.718-8.282 8.281-8.282 2.211 0 4.292.865 5.85 2.433a8.221 8.221 0 0 1 2.422 5.859c.02 4.563-3.699 8.271-8.262 8.271zM15 12.384c-.251-.121-1.478-.724-1.699-.815-.23-.08-.392-.12-.562.12-.171.252-.644.815-.784.976-.141.17-.292.19-.543.06-.251-.12-1.055-.392-2-1.236-.744-.664-1.236-1.478-1.387-1.729-.14-.251-.02-.382.11-.512.111-.11.252-.292.372-.433.121-.14.171-.25.252-.412.08-.17.04-.311-.02-.432-.06-.12-.563-1.346-.764-1.849-.201-.482-.412-.422-.563-.432h-.482c-.171 0-.433.06-.664.311-.22.252-.864.855-.864 2.08 0 1.227.894 2.413 1.015 2.574.12.17 1.759 2.683 4.251 3.759.593.26 1.056.412 1.417.522.593.191 1.136.16 1.568.1.483-.07 1.478-.602 1.679-1.185.21-.583.21-1.076.14-1.186-.07-.11-.22-.161-.472-.282z" fill="#F8F8F8"/></svg>
